assets/images/energy.svg

<svg height="76" viewBox="0 0 76 76" width="76" xmlns="http://www.w3.org/2000/svg"><g fill="#82bc00" transform="translate(0 1)"><path d="m46.43 16.4c-.2832069-.3909421-.7372588-.6216898-1.22-.62h-16.48c-.6788165-.0007181-1.273508.4545285-1.45 1.11l-6.19 22.83c-.1214036.4508774-.0259148.9325759.2583073 1.3030447.284222.3704687.7247569.5874494 1.1916927.5869553h4.68v19.11c-.0005653.6368943.4011268 1.2047074 1.0018781 1.4162079.6007514.2115004 1.2695667.0205701 1.6681219-.4762079l24.74-30.92c.3618909-.4500269.4333008-1.0678401.1836131-1.5885563-.2496876-.5207162-.7761279-.8518553-1.3536131-.8514437h-10.3l3.47-10.55c.1537564-.4560281.0793696-.9581387-.2-1.35zm3.91 14.9-20.11 25.14v-16.33c0-.8284271-.6715729-1.5-1.5-1.5h-4.23l5.37-19.83h13.27l-3.47 10.55c-.1626625.4600675-.0913653.9705062.1911351 1.3683941.2825004.3978878.7408919.6334896 1.2288649.6316059h9.25z"/><path d="m4 37c-.01981541-6.4844674 1.81948662-12.8387354 5.3-18.31.44735065-.6986402.24364021-1.6276494-.455-2.075s-1.62764935-.2436402-2.075.455c-7.09721828 11.1314527-7.74088303 25.1968606-1.69 36.93.38107649.7373001 1.28769985 1.0260764 2.02499998.645.73730013-.3810765 1.02607647-1.2876999.64500002-2.025-2.49229892-4.8277176-3.77893654-10.1869922-3.75-15.62z"/><path d="m57.4 64.94c-14.5085947 10.0985926-34.3352801 7.3947561-45.61-6.22-.5301934-.6378889-1.4771111-.7251934-2.115-.195-.63788889.5301934-.72519336 1.4771111-.195 2.115 12.3325169 14.9098992 34.0702947 17.7998424 49.87 6.63l1.34 1.6 2.46-6.75-7.07 1.24z"/><path d="m70.92 20c-.3810765-.7373001-1.2876999-1.0260764-2.025-.6449999-.7373001.3810764-1.0260764 1.2876998-.645 2.0249999 5.8292858 11.3207974 4.8612181 24.947025-2.51 35.33-.3408653.4345216-.4153922 1.0212-.1939963 1.5271467s.7028987.8493135 1.2533707.8937971c.550472.0444837 1.0808619-.217112 1.3806256-.6809438 8.0269968-11.2975279 9.0838641-26.1283848 2.74-38.45z"/><path d="m38 0c-7.6401227-.02055238-15.0963973 2.34252385-21.33 6.76l-1.34-1.6-2.46 6.74 7.07-1.24-1.32-1.66c13.513608-9.39285914 31.8144627-7.75862861 43.45 3.88.5910195.5507177 1.5120194.5344678 2.0832436-.0367564s.5874741-1.4922241.0367564-2.0832436c-6.944974-6.9369418-16.3741333-10.81085376-26.19-10.76z"/></g></svg>

<?xml version="1.0" encoding="UTF-8"?>
<svg width="76px" height="76px" viewBox="0 0 76 76" version="1.1" xmlns="http://www.w3.org/2000/svg" xmlns:xlink="http://www.w3.org/1999/xlink">
    <!-- Generator: Sketch 43.2 (39069) - http://www.bohemiancoding.com/sketch -->
    <title>Slice 1</title>
    <desc>Created with Sketch.</desc>
    <defs></defs>
    <g id="Page-1" stroke="none" stroke-width="1" fill="none" fill-rule="evenodd">
        <g id="noun_1351614-(1)" transform="translate(0.000000, 1.000000)" fill-rule="nonzero" fill="#82BC00">
            <path d="M46.43,16.4 C46.1467931,16.0090579 45.6927412,15.7783102 45.21,15.78 L28.73,15.78 C28.0511835,15.7792819 27.456492,16.2345285 27.28,16.89 L21.09,39.72 C20.9685964,40.1708774 21.0640852,40.6525759 21.3483073,41.0230447 C21.6325293,41.3935134 22.0730642,41.6104941 22.54,41.61 L27.22,41.61 L27.22,60.72 C27.2194347,61.3568943 27.6211268,61.9247074 28.2218781,62.1362079 C28.8226295,62.3477083 29.4914448,62.156778 29.89,61.66 L54.63,30.74 C54.9918909,30.2899731 55.0633008,29.6721599 54.8136131,29.1514437 C54.5639255,28.6307275 54.0374852,28.2995884 53.46,28.3 L43.16,28.3 L46.63,17.75 C46.7837564,17.2939719 46.7093696,16.7918613 46.43,16.4 Z M50.34,31.3 L30.23,56.44 L30.23,40.11 C30.23,39.2815729 29.5584271,38.61 28.73,38.61 L24.5,38.61 L29.87,18.78 L43.14,18.78 L39.67,29.33 C39.5073375,29.7900675 39.5786347,30.3005062 39.8611351,30.6983941 C40.1436355,31.0962819 40.602027,31.3318837 41.09,31.33 L50.34,31.33 L50.34,31.3 Z" id="Shape"></path>
            <path d="M4,37 C3.98018459,30.5155326 5.81948662,24.1612646 9.3,18.69 C9.74735065,17.9913598 9.54364021,17.0623506 8.845,16.615 C8.14635979,16.1676494 7.21735065,16.3713598 6.77,17.07 C-0.327218277,28.2014527 -0.97088303,42.2668606 5.08,54 C5.46107649,54.7373001 6.36769985,55.0260764 7.10499998,54.645 C7.84230011,54.2639235 8.13107645,53.3573001 7.75,52.62 C5.25770108,47.7922824 3.97106346,42.4330078 4,37 L4,37 Z" id="Shape"></path>
            <path d="M57.4,64.94 C42.8914053,75.0385926 23.0647199,72.3347561 11.79,58.72 C11.2598066,58.0821111 10.3128889,57.9948066 9.675,58.525 C9.03711111,59.0551934 8.94980664,60.0021111 9.48,60.64 C21.8125169,75.5498992 43.5502947,78.4398424 59.35,67.27 L60.69,68.87 L63.15,62.12 L56.08,63.36 L57.4,64.94 Z" id="Shape"></path>
            <path d="M70.92,20 C70.5389235,19.2626999 69.6323001,18.9739236 68.895,19.3550001 C68.1576999,19.7360765 67.8689236,20.6426999 68.25,21.38 C74.0792858,32.7007974 73.1112181,46.327025 65.74,56.71 C65.3991347,57.1445216 65.3246078,57.7312 65.5460037,58.2371467 C65.7673996,58.7430934 66.2489024,59.0864602 66.7993744,59.1309438 C67.3498464,59.1754275 67.8802363,58.9138318 68.18,58.45 C76.2069968,47.1524721 77.2638641,32.3216152 70.92,20 Z" id="Shape"></path>
            <path d="M38,0 C30.3598773,-0.0205523849 22.9036027,2.34252385 16.67,6.76 L15.33,5.16 L12.87,11.9 L19.94,10.66 L18.62,9 C32.133608,-0.392859138 50.4344627,1.24137139 62.07,12.88 C62.6610195,13.4307177 63.5820194,13.4144678 64.1532436,12.8432436 C64.7244678,12.2720194 64.7407177,11.3510195 64.19,10.76 C57.245026,3.8230582 47.8158667,-0.0508537637 38,-1.77635684e-15 L38,0 Z" id="Shape"></path>
        </g>
    </g>
</svg>
